X: 43
T:Auld Lan Syne. JaW.043
M:C
Q:1/4=100
S:James Winder Ms, Lancashire, 1835-41
R:Air
O:England
A:Wyresdale,Lancashire
H:1/8
Z:vmp.Chris Partington, Aug 2004
K:C
G|c>cce d>cd>e|c<ceg a2c'2|g>ee>c d>cd>e|c>A A>G c3:|!
|:a|g>ee>c d>cd>e|g>ee>g a2c'2|g>ee>c d>cd>e|c>AA>G c3:|]
